X:2841
T:Chapter 16
R:Reel
S:(Liz Carroll)
H:
N:
D:Solo Album
Z:Adrian Scahill
M:4/4
L:1/8
K:D
GEE2 (3BcB AB|GAFG EGFE|CA,A,2 Ddd2|cABc dDEF|\
GEE2 (3BcB AB|GAFG EGFA|Bdd2 cAGF|GEFD B,EEF:||\
Add2 fdeg|fdd2 fded|A=cc2 G2eg|aged ADFG|\
Add2 fdeg|fded =cAGF|GE=cd edcGD|CA,A,2 D4:||
